public/icon/video.svg

<svg width="31" height="21" viewBox="0 0 31 21" fill="none" xmlns="http://www.w3.org/2000/svg">
<path d="M30.4597 2.6904C30.1993 2.55743 29.9389 2.55743 29.8087 2.6904L25.2516 6.28051V4.68491C25.2516 2.55743 23.559 0.828857 21.4758 0.828857H4.67967C2.59644 0.828857 0.903809 2.55743 0.903809 4.68491V16.652C0.903809 18.7794 2.59644 20.508 4.67967 20.508H21.4758C23.559 20.508 25.2516 18.7794 25.2516 16.652V15.0563L29.8087 18.6465C29.9389 18.7794 30.1993 18.7794 30.4597 18.6465C30.7201 18.5135 30.8503 18.3805 30.8503 18.1146V3.22227C30.8503 2.95633 30.7201 2.82337 30.4597 2.6904Z" fill="url(#paint0_linear_104_2542)"/>
<defs>
<linearGradient id="paint0_linear_104_2542" x1="0.903809" y1="10.6684" x2="30.8503" y2="10.6684" gradientUnits="userSpaceOnUse">
<stop stop-color="#3068D0"/>
<stop offset="0.5" stop-color="#836BAF"/>
<stop offset="1" stop-color="#978262"/>
</linearGradient>
</defs>
</svg>

<svg xmlns="http://www.w3.org/2000/svg" width="31" height="21" fill="none"><path fill="url(#a)" d="M30.46 2.69c-.26-.133-.521-.133-.651 0l-4.557 3.59V4.686c0-2.128-1.693-3.856-3.776-3.856H4.68C2.596.829.904 2.557.904 4.685v11.967c0 2.127 1.692 3.856 3.776 3.856h16.796c2.083 0 3.776-1.729 3.776-3.856v-1.596l4.557 3.59c.13.133.39.133.65 0 .261-.133.391-.265.391-.531V3.222c0-.266-.13-.399-.39-.532Z"/><defs><linearGradient id="a" x1=".904" x2="30.85" y1="10.668" y2="10.668" gradientUnits="userSpaceOnUse"><stop stop-color="#3068D0"/><stop offset=".5" stop-color="#836BAF"/><stop offset="1" stop-color="#978262"/></linearGradient></defs></svg>
